style-guide/assets/wds-icons-refresh-small.svg

<svg xmlns="http://www.w3.org/2000/svg" xmlns:xlink="http://www.w3.org/1999/xlink" viewBox="0 0 18 18">
  <defs>
    <path id="reload-a" d="M16 9a1 1 0 0 0-1 1c0 3.309-2.691 6-6 6s-6-2.691-6-6 2.691-6 6-6c1.191 0 2.336.359 3.306 1H11a1 1 0 1 0 0 2h4a1 1 0 0 0 1-1V2a1 1 0 1 0-2 0v1.773A7.99 7.99 0 0 0 9 2c-4.411 0-8 3.589-8 8s3.589 8 8 8 8-3.589 8-8a1 1 0 0 0-1-1"/>
  </defs>
  <use fill-rule="evenodd" xlink:href="#reload-a"/>
</svg>

<svg xmlns="http://www.w3.org/2000/svg" xmlns:xlink="http://www.w3.org/1999/xlink" width="18" height="18" viewBox="0 0 18 18">
  <defs>
    <path id="reload-a" d="M16,9 C15.447,9 15,9.447 15,10 C15,13.309 12.309,16 9,16 C5.691,16 3,13.309 3,10 C3,6.691 5.691,4 9,4 C10.191,4 11.336,4.359 12.306,5 L11,5 C10.447,5 10,5.447 10,6 C10,6.553 10.447,7 11,7 L15,7 C15.553,7 16,6.553 16,6 L16,2 C16,1.447 15.553,1 15,1 C14.447,1 14,1.447 14,2 L14,3.773 C12.596,2.646 10.841,2 9,2 C4.589,2 1,5.589 1,10 C1,14.411 4.589,18 9,18 C13.411,18 17,14.411 17,10 C17,9.447 16.553,9 16,9"/>
  </defs>
  <use fill-rule="evenodd" xlink:href="#reload-a"/>
</svg>
